react/assets/icons/inbox.svg

<svg xmlns="http://www.w3.org/2000/svg" width="48" height="48" viewBox="0 0 24 24" aria-labelledby="inboxIconTitle" stroke-linecap="square" fill="none"><path d="M3 10h6v3h6v-3h6"/><path d="M3 10l3-6h12l3 6v10H3V10z"/></svg>

<svg role="img" xmlns="http://www.w3.org/2000/svg" width="48px" height="48px" viewBox="0 0 24 24" aria-labelledby="inboxIconTitle" stroke-linecap="square" stroke-linejoin="miter" fill="none"> <title id="inboxIconTitle">Inbox</title> <path d="M3 10H9V13H15V10H21"/> <path d="M3 10L6 4H18L21 10V20H3V10Z"/> </svg>
